X:1
T:James Gibb editions
T:Peccantem me quotidie - Morales
T:#
%%score [ 1 2 3 4 ]
L:1/8
Q:1/4=108
M:2/2
K:C
V:1 treble nm="Soprano" snm="S"
V:2 treble nm="Alto" snm="A"
V:3 treble-8 nm="Tenor" snm="T"
V:4 bass nm="Bass" snm="B"
V:1
"^Peccantem me quotidie""^Cristóbal de Morales\n(1500-53)" z8 | z4 A4 | (A2 ^G^F G4) | A4 z4 | %4
w: |Pec-|can\- * * *|tem,|
 z4 z2 A2 |[M:2/2] A3 A A2 A2 | (c6 BA) | B4 c2 G2 | A4 G4 | G6 F2 | E4 D2 F2 | E6 A2 | %12
w: pec-|can- tem me quo-|ti\- * *|di- e, et|non me|poe- ni-|ten- tem, et|non me|
 G2 G2 (A3 B | c2) B2 z4 | z8 | z4 A4- | A4 ^G4 | (A6 G2 | F8) | E6 G2 | G2 E2 E4 | z2 c2 B2 A2 | %22
w: poe- ni- ten\- *|* tem,||ti\-|* mor|mor\- *||tis con-|tur- bat me,|con- tur- bat|
 ^G4 z4 | A6 G2 | F2 E2 D2 D2 | F3 F G2 F2 | E3 E ^F4 | z2 G4 F2 | E4 E4 | ^G3 G G2 G2 | %30
w: me:|Qui- a|in in- fer- no|nul- la est re-|dem- pti- o,|mi- se-|re- re,|mi- se- re- re|
 A2 A4 ^G2 | A2 E2 E3 F | (G3 A Bc d2- | d2) A2 (A3 c | B2 A2 ^G4 | z4 A4- | A2 G2 F2 E2 | %37
w: me- i, De-|us, et sal- va|me, * * * *|* et sal\- *|* va me.|Qui\-|* a in in-|
 D2 D2 ^F3 F | G2 F2 E3 E | ^F4 z2 G2- | G2 F2 E4 | E4 ^G3 G | ^G2 G2 A2 A2- | A2 ^G2 A2 E2 | %44
w: fer- no nul- la|est re- dem- pti-|o, mi\-|* se- re-|re, mi- se-|re- re me- i,|* De- us, et|
 E3 F G3 A | Bc d4) A2 |[Q:1/4=106] (A3[Q:1/4=105] c[Q:1/4=104] B2)[Q:1/4=102] A2 | %47
w: sal- va me, *|* * * et|sal\- * * va|
[Q:1/4=100] ^G6[Q:1/4=97] A2 |[Q:1/4=95] (F3[Q:1/4=94] E[Q:1/4=93] D2)[Q:1/4=92] F2 | %49
w: me, et|sal\- * * va|
[Q:1/4=91] E16 |] %50
w: me.|
V:2
 z4 E4 | (E2 DC D4) | E8 | (C6 B,A,) | B,4 A,2 C2 |[M:2/2] F6 F2 | F2 C2 (D3 E | F2) F2 E2 E2 | %8
w: Pec-|can\- * * *|tem,|pec\- * *|can- tem, pec-|can- tern|me quo- ti\- *|* di- e, et|
 (C3 D E2) D2 | E6 D2- | D2 C2 D2 A,2 | (A,B,CD E2) E2 | E2 E2 (C2 D2) | E4 z4 | z4 E4- | E4 D4 | %16
w: non * * me|poe- ni\-|* ten- tem, et|non * * * * me|poe- ni- ten\- *|tem,|ti\-|* mor|
 E4 E4 | C6 C2 | D8 | G,6 E2 | D2 C2 B,4 | z2 G2 G2 E2 | E4 z4 | A,2 B,2 C2 C2 | D6 A,2 | %25
w: mor- tis,|ti- mor|mor|tis con|tur- bat me,|con- tur- bat|me:|Qui- a in in-|fer- no|
 D3 D D2 D2 | D2 ^C2 D4 | z2 E4 D2 | (C2 B,2) B,4 | E3 E E2 E2 | E2 D2 E4 | ^C4 z2 E2- | %32
w: nul- la est re-|dem- pti- o,|mi- se-|re\- * re,|mi- se- re- re|me- i, De-|us, et|
 E2 (D3 E) F2 | F4 E4 | E2 E2 E4 | z4 A,2 B,2 | C2 C2 D4- | D2 A,2 D3 D | D2 D2 D2 ^C2 | %39
w: * sal\- * va|me, et|sal- va me.|Qui- a|in in- fer\-|* no nul- la|est re- dem- pti-|
 D4 z2 E2- | E2 D2 (C2 B,2) | B,4 E3 E | E2 E2 E2 D2 | E4 C4 | z2 E4 (D2- | DE F4) F2 | %46
w: o, mi\-|* se- re\- *|re, mi- se-|re- re me- i,|De- us,|et sal\-|* * * va|
 E2 E2 E2 E2 | E6 E2 | (D4 A,2 D2- | D2) (^CB,) C12 |] %50
w: me, et sal- va|me, et|sal\- * *|* va * me.|
V:3
 z8 | z4 A4 | (c2 BA B4 | A4) E4- | E4 z2 A2 |[M:2/2][K:treble-8] c2 d2 c4- | c2 A2 F4- | %7
w: |Pec-|can\- * * *|* tem,|* pec-|can- tem me|* quo- ti\-|
 F2 F2 G2 c2 | (A3 B c2) B2 | c2 G2 A4- | A4 D2 d2- | d2 c4 c2 | B2 c4 A2- | A2 ^G2 c4 | B8 | %15
w: * di- e, et|non * * me|poe- ni- ten\-|* tem, et|* non me|poe- ni- ten\-|* tem, ti-|mor|
 (c3 B A4) | B6 c2- | c2 B2 (A2 c2- | c2 BA B4) | c6 c2 | B2 A2 G4 | z2 e2 d2 c2 | B2 e4 d2 | %23
w: mor\- * *|tis, ti\-|* mor mor\- *||tis con-|tur- bat me,|con- tur- bat|me: Qui- a|
 c2 B2 A4 | A6 ((F2 | FG)) A2 _B2 A2 | A3 A A4 | c6 A2- | A2 ^G4 G2 | B3 B B2 B2 | c2 A2 B4 | %31
w: in in- fer-|no nul\-|* * la est re-|dem- pti- o,|mi- se\-|* re- re,|mi- se- re- re|me- i, De-|
 A6 G2 | (GABc d2) d2 | (A3 B cdeA | B2 c2 B2) e2- | e2 d2 c2 B2 | A4 A4 | (^F3 G) A4 | %38
w: us, et|sal\- * * * * va|me, * * * * *|* * * Qui\-|* a in in-|fer- no|nul\- * la|
 _B2 A2 A3 A | A4 c4- | c2 A4 ^G2- | G2 ^G2 B3 B | B2 B2 c2 A2 | B4 A4 | z2 G2 (GABc | %45
w: est re- dem- pti-|o, mi\-|* se- re\-|* re, mi- se-|re- re me- i,|De- us,|et sal\- * * *|
 d2) d2 (A3 B | cdeA B2) c2 | (B6 A2) | A8 | A16 |] %50
w: * va me, *|* * * * * et|sal\- *|va|me.|
V:4
 E,8 | F,8 | E,8 | z2 (A,4 ^G,^F,) | ^G,4 A,2 A,2 |[M:2/2] F,2 D,2 F,4- | F,2 F,2 D,4- | %7
w: Pec-|can-|tem,|pec\- * *|can- tem, Pec-|can- tem me|* quo- ti\-|
 D,2 D,2 C,4 | z8 | z8 | z4 D,4 | (A,,3 B,, C,2) A,,2 | E,2 C,2 F,4 | E,4 A,4- | A,4 G,4 | %15
w: * di- e,|||et|non * * me|poe- ni- ten-|tem, ti\-|* mor|
 (A,3 G, F,4) | E,8 | F,6 E,2 | D,8 | C,6 C,2 | G,,2 A,,2 E,4 | z2 C,2 G,2 A,2 | E,4 A,4- | %23
w: mor\- * *|tis|ti- mor|mor-|tis con-|tur- bat me,|con- tur- bat|me: Qui\-|
 A,2 G,2 F,2 E,2 | D,4 D,4 | D,3 D, G,,2 D,2 | A,,3 A,, D,4 | C,6 D,2 | E,4 E,4 | E,3 E, E,2 E,2 | %30
w: * a in in-|fer- no|nul- la est re-|dem- pti- o,|mi- se-|re- re,|mi- se- re- re|
 A,2 F,2 E,4 | A,,2 A,,2 (C,3 D, | E,F, G,2) G,2 (D,2- | D,E,F,G, A,2) A,2 | ^G,2 A,2 E,4 | %35
w: me- i, De-|us, et sal\- *|* * * va me,|* * * * * et|sal- va me.|
 A,6 G,2 | F,2 E,2 D,4 | D,4 D,3 D, | G,,2 D,2 A,,3 A,, | D,4 C,4- | C,2 D,2 E,4 | E,4 E,3 E, | %42
w: Qui- a|in in- fer-|no nul- la|est re- dem- pti-|o, mi\-|* se- re-|re, mi- se-|
 E,2 E,2 A,2 F,2 | E,4 A,,2 A,,2 | (C,3 D, E,F, G,2- | G,2) D,2 (D,E,F,G, | A,2) A,2 ^G,2 A,2 | %47
w: re- re me- i,|De- us, et|sal\- * * * *|* va me, * * *|* et sal- va|
 E,6 ^C,2 | D,6 D,2 | A,,16 |] %50
w: me, et|sal- va|me.|

